color-core/srgb--lin.cube
TITLE "Custom LUT"
LUT_3D_SIZE 17
# sRGB - γ2.20 (exp2.40)/Passthrough -> Scene Linear IRE - γ1.0 (18% Gray = 0.2)/Passthrough, CineEI Shift 0.00, Black Level 0.00% IRE, Legal Input -> Legal Output - Created with LUTCalc v2.4 by Ben Turley May 2016
0.000000 0.000000 0.000000
0.005156 0.000000 0.000000
0.014350 0.000000 0.000000
0.029343 0.000000 0.000000
0.050876 0.000000 0.000000
0.079581 0.000000 0.000000
0.116016 0.000000 0.000000
0.160683 0.000000 0.000000
0.214041 0.000000 0.000000
0.276518 0.000000 0.000000
0.348510 0.000000 0.000000
0.430393 0.000000 0.000000
0.522522 0.000000 0.000000
0.625232 0.000000 0.000000
0.738845 0.000000 0.000000
0.863669 0.000000 0.000000
1.000000 0.000000 0.000000
0.000000 0.005156 0.000000
0.005156 0.005156 0.000000
0.014350 0.005156 0.000000
0.029343 0.005156 0.000000
0.050876 0.005156 0.000000
0.079581 0.005156 0.000000
0.116016 0.005156 0.000000
0.160683 0.005156 0.000000
0.214041 0.005156 0.000000
0.276518 0.005156 0.000000
0.348510 0.005156 0.000000
0.430393 0.005156 0.000000
0.522522 0.005156 0.000000
0.625232 0.005156 0.000000
0.738845 0.005156 0.000000
0.863669 0.005156 0.000000
1.000000 0.005156 0.000000
0.000000 0.014350 0.000000
0.005156 0.014350 0.000000
0.014350 0.014350 0.000000
0.029343 0.014350 0.000000
0.050876 0.014350 0.000000
0.079581 0.014350 0.000000
0.116016 0.014350 0.000000
0.160683 0.014350 0.000000
0.214041 0.014350 0.000000
0.276518 0.014350 0.000000
0.348510 0.014350 0.000000
0.430393 0.014350 0.000000
0.522522 0.014350 0.000000
0.625232 0.014350 0.000000
0.738845 0.014350 0.000000
0.863669 0.014350 0.000000
1.000000 0.014350 0.000000
0.000000 0.029343 0.000000
0.005156 0.029343 0.000000
0.014350 0.029343 0.000000
0.029343 0.029343 0.000000
0.050876 0.029343 0.000000
0.079581 0.029343 0.000000
0.116016 0.029343 0.000000
0.160683 0.029343 0.000000
0.214041 0.029343 0.000000
0.276518 0.029343 0.000000
0.348510 0.029343 0.000000
0.430393 0.029343 0.000000
0.522522 0.029343 0.000000
0.625232 0.029343 0.000000
0.738845 0.029343 0.000000
0.863669 0.029343 0.000000
1.000000 0.029343 0.000000
0.000000 0.050876 0.000000
0.005156 0.050876 0.000000
0.014350 0.050876 0.000000
0.029343 0.050876 0.000000
0.050876 0.050876 0.000000
0.079581 0.050876 0.000000
0.116016 0.050876 0.000000
0.160683 0.050876 0.000000
0.214041 0.050876 0.000000
0.276518 0.050876 0.000000
0.348510 0.050876 0.000000
0.430393 0.050876 0.000000
0.522522 0.050876 0.000000
0.625232 0.050876 0.000000
0.738845 0.050876 0.000000
0.863669 0.050876 0.000000
1.000000 0.050876 0.000000
0.000000 0.079581 0.000000
0.005156 0.079581 0.000000
0.014350 0.079581 0.000000
0.029343 0.079581 0.000000
0.050876 0.079581 0.000000
0.079581 0.079581 0.000000
0.116016 0.079581 0.000000
0.160683 0.079581 0.000000
0.214041 0.079581 0.000000
0.276518 0.079581 0.000000
0.348510 0.079581 0.000000
0.430393 0.079581 0.000000
0.522522 0.079581 0.000000
0.625232 0.079581 0.000000
0.738845 0.079581 0.000000
0.863669 0.079581 0.000000
1.000000 0.079581 0.000000
0.000000 0.116016 0.000000
0.005156 0.116016 0.000000
0.014350 0.116016 0.000000
0.029343 0.116016 0.000000
0.050876 0.116016 0.000000
0.079581 0.116016 0.000000
0.116016 0.116016 0.000000
0.160683 0.116016 0.000000
0.214041 0.116016 0.000000
0.276518 0.116016 0.000000
0.348510 0.116016 0.000000
0.430393 0.116016 0.000000
0.522522 0.116016 0.000000
0.625232 0.116016 0.000000
0.738845 0.116016 0.000000
0.863669 0.116016 0.000000
1.000000 0.116016 0.000000
0.000000 0.160683 0.000000
0.005156 0.160683 0.000000
0.014350 0.160683 0.000000
0.029343 0.160683 0.000000
0.050876 0.160683 0.000000
0.079581 0.160683 0.000000
0.116016 0.160683 0.000000
0.160683 0.160683 0.000000
0.214041 0.160683 0.000000
0.276518 0.160683 0.000000
0.348510 0.160683 0.000000
0.430393 0.160683 0.000000
0.522522 0.160683 0.000000
0.625232 0.160683 0.000000
0.738845 0.160683 0.000000
0.863669 0.160683 0.000000
1.000000 0.160683 0.000000
0.000000 0.214041 0.000000
0.005156 0.214041 0.000000
0.014350 0.214041 0.000000
0.029343 0.214041 0.000000
0.050876 0.214041 0.000000
0.079581 0.214041 0.000000
0.116016 0.214041 0.000000
0.160683 0.214041 0.000000
0.214041 0.214041 0.000000
0.276518 0.214041 0.000000
0.348510 0.214041 0.000000
0.430393 0.214041 0.000000
0.522522 0.214041 0.000000
0.625232 0.214041 0.000000
0.738845 0.214041 0.000000
0.863669 0.214041 0.000000
1.000000 0.214041 0.000000
0.000000 0.276518 0.000000
0.005156 0.276518 0.000000
0.014350 0.276518 0.000000
0.029343 0.276518 0.000000
0.050876 0.276518 0.000000
0.079581 0.276518 0.000000
0.116016 0.276518 0.000000
0.160683 0.276518 0.000000
0.214041 0.276518 0.000000
0.276518 0.276518 0.000000
0.348510 0.276518 0.000000
0.430393 0.276518 0.000000
0.522522 0.276518 0.000000
0.625232 0.276518 0.000000
0.738845 0.276518 0.000000
0.863669 0.276518 0.000000
1.000000 0.276518 0.000000
0.000000 0.348510 0.000000
0.005156 0.348510 0.000000
0.014350 0.348510 0.000000
0.029343 0.348510 0.000000
0.050876 0.348510 0.000000
0.079581 0.348510 0.000000
0.116016 0.348510 0.000000
0.160683 0.348510 0.000000
0.214041 0.348510 0.000000
0.276518 0.348510 0.000000
0.348510 0.348510 0.000000
0.430393 0.348510 0.000000
0.522522 0.348510 0.000000
0.625232 0.348510 0.000000
0.738845 0.348510 0.000000
0.863669 0.348510 0.000000
1.000000 0.348510 0.000000
0.000000 0.430393 0.000000
0.005156 0.430393 0.000000
0.014350 0.430393 0.000000
0.029343 0.430393 0.000000
0.050876 0.430393 0.000000
0.079581 0.430393 0.000000
0.116016 0.430393 0.000000
0.160683 0.430393 0.000000
0.214041 0.430393 0.000000
0.276518 0.430393 0.000000
0.348510 0.430393 0.000000
0.430393 0.430393 0.000000
0.522522 0.430393 0.000000
0.625232 0.430393 0.000000
0.738845 0.430393 0.000000
0.863669 0.430393 0.000000
1.000000 0.430393 0.000000
0.000000 0.522522 0.000000
0.005156 0.522522 0.000000
0.014350 0.522522 0.000000
0.029343 0.522522 0.000000
0.050876 0.522522 0.000000
0.079581 0.522522 0.000000
0.116016 0.522522 0.000000
0.160683 0.522522 0.000000
0.214041 0.522522 0.000000
0.276518 0.522522 0.000000
0.348510 0.522522 0.000000
0.430393 0.522522 0.000000
0.522522 0.522522 0.000000
0.625232 0.522522 0.000000
0.738845 0.522522 0.000000
0.863669 0.522522 0.000000
1.000000 0.522522 0.000000
0.000000 0.625232 0.000000
0.005156 0.625232 0.000000
0.014350 0.625232 0.000000
0.029343 0.625232 0.000000
0.050876 0.625232 0.000000
0.079581 0.625232 0.000000
0.116016 0.625232 0.000000
0.160683 0.625232 0.000000
0.214041 0.625232 0.000000
0.276518 0.625232 0.000000
0.348510 0.625232 0.000000
0.430393 0.625232 0.000000
0.522522 0.625232 0.000000
0.625232 0.625232 0.000000
0.738845 0.625232 0.000000
0.863669 0.625232 0.000000
1.000000 0.625232 0.000000
0.000000 0.738845 0.000000
0.005156 0.738845 0.000000
0.014350 0.738845 0.000000
0.029343 0.738845 0.000000
0.050876 0.738845 0.000000
0.079581 0.738845 0.000000
0.116016 0.738845 0.000000
0.160683 0.738845 0.000000
0.214041 0.738845 0.000000
0.276518 0.738845 0.000000
0.348510 0.738845 0.000000
0.430393 0.738845 0.000000
0.522522 0.738845 0.000000
0.625232 0.738845 0.000000
0.738845 0.738845 0.000000
0.863669 0.738845 0.000000
1.000000 0.738845 0.000000
0.000000 0.863669 0.000000
0.005156 0.863669 0.000000
0.014350 0.863669 0.000000
0.029343 0.863669 0.000000
0.050876 0.863669 0.000000
0.079581 0.863669 0.000000
0.116016 0.863669 0.000000
0.160683 0.863669 0.000000
0.214041 0.863669 0.000000
0.276518 0.863669 0.000000
0.348510 0.863669 0.000000
0.430393 0.863669 0.000000
0.522522 0.863669 0.000000
0.625232 0.863669 0.000000
0.738845 0.863669 0.000000
0.863669 0.863669 0.000000
1.000000 0.863669 0.000000
0.000000 1.000000 0.000000
0.005156 1.000000 0.000000
0.014350 1.000000 0.000000
0.029343 1.000000 0.000000
0.050876 1.000000 0.000000
0.079581 1.000000 0.000000
0.116016 1.000000 0.000000
0.160683 1.000000 0.000000
0.214041 1.000000 0.000000
0.276518 1.000000 0.000000
0.348510 1.000000 0.000000
0.430393 1.000000 0.000000
0.522522 1.000000 0.000000
0.625232 1.000000 0.000000
0.738845 1.000000 0.000000
0.863669 1.000000 0.000000
1.000000 1.000000 0.000000
0.000000 0.000000 0.005156
0.005156 0.000000 0.005156
0.014350 0.000000 0.005156
0.029343 0.000000 0.005156
0.050876 0.000000 0.005156
0.079581 0.000000 0.005156
0.116016 0.000000 0.005156
0.160683 0.000000 0.005156
0.214041 0.000000 0.005156
0.276518 0.000000 0.005156
0.348510 0.000000 0.005156
0.430393 0.000000 0.005156
0.522522 0.000000 0.005156
0.625232 0.000000 0.005156
0.738845 0.000000 0.005156
0.863669 0.000000 0.005156
1.000000 0.000000 0.005156
0.000000 0.005156 0.005156
0.005156 0.005156 0.005156
0.014350 0.005156 0.005156
0.029343 0.005156 0.005156
0.050876 0.005156 0.005156
0.079581 0.005156 0.005156
0.116016 0.005156 0.005156
0.160683 0.005156 0.005156
0.214041 0.005156 0.005156
0.276518 0.005156 0.005156
0.348510 0.005156 0.005156
0.430393 0.005156 0.005156
0.522522 0.005156 0.005156
0.625232 0.005156 0.005156
0.738845 0.005156 0.005156
0.863669 0.005156 0.005156
1.000000 0.005156 0.005156
0.000000 0.014350 0.005156
0.005156 0.014350 0.005156
0.014350 0.014350 0.005156
0.029343 0.014350 0.005156
0.050876 0.014350 0.005156
0.079581 0.014350 0.005156
0.116016 0.014350 0.005156
0.160683 0.014350 0.005156
0.214041 0.014350 0.005156
0.276518 0.014350 0.005156
0.348510 0.014350 0.005156
0.430393 0.014350 0.005156
0.522522 0.014350 0.005156
0.625232 0.014350 0.005156
0.738845 0.014350 0.005156
0.863669 0.014350 0.005156
1.000000 0.014350 0.005156
0.000000 0.029343 0.005156
0.005156 0.029343 0.005156
0.014350 0.029343 0.005156
0.029343 0.029343 0.005156
0.050876 0.029343 0.005156
0.079581 0.029343 0.005156
0.116016 0.029343 0.005156
0.160683 0.029343 0.005156
0.214041 0.029343 0.005156
0.276518 0.029343 0.005156
0.348510 0.029343 0.005156
0.430393 0.029343 0.005156
0.522522 0.029343 0.005156
0.625232 0.029343 0.005156
0.738845 0.029343 0.005156
0.863669 0.029343 0.005156
1.000000 0.029343 0.005156
0.000000 0.050876 0.005156
0.005156 0.050876 0.005156
0.014350 0.050876 0.005156
0.029343 0.050876 0.005156
0.050876 0.050876 0.005156
0.079581 0.050876 0.005156
0.116016 0.050876 0.005156
0.160683 0.050876 0.005156
0.214041 0.050876 0.005156
0.276518 0.050876 0.005156
0.348510 0.050876 0.005156
0.430393 0.050876 0.005156
0.522522 0.050876 0.005156
0.625232 0.050876 0.005156
0.738845 0.050876 0.005156
0.863669 0.050876 0.005156
1.000000 0.050876 0.005156
0.000000 0.079581 0.005156
0.005156 0.079581 0.005156
0.014350 0.079581 0.005156
0.029343 0.079581 0.005156
0.050876 0.079581 0.005156
0.079581 0.079581 0.005156
0.116016 0.079581 0.005156
0.160683 0.079581 0.005156
0.214041 0.079581 0.005156
0.276518 0.079581 0.005156
0.348510 0.079581 0.005156
0.430393 0.079581 0.005156
0.522522 0.079581 0.005156
0.625232 0.079581 0.005156
0.738845 0.079581 0.005156
0.863669 0.079581 0.005156
1.000000 0.079581 0.005156
0.000000 0.116016 0.005156
0.005156 0.116016 0.005156
0.014350 0.116016 0.005156
0.029343 0.116016 0.005156
0.050876 0.116016 0.005156
0.079581 0.116016 0.005156
0.116016 0.116016 0.005156
0.160683 0.116016 0.005156
0.214041 0.116016 0.005156
0.276518 0.116016 0.005156
0.348510 0.116016 0.005156
0.430393 0.116016 0.005156
0.522522 0.116016 0.005156
0.625232 0.116016 0.005156
0.738845 0.116016 0.005156
0.863669 0.116016 0.005156
1.000000 0.116016 0.005156
0.000000 0.160683 0.005156
0.005156 0.160683 0.005156
0.014350 0.160683 0.005156
0.029343 0.160683 0.005156
0.050876 0.160683 0.005156
0.079581 0.160683 0.005156
0.116016 0.160683 0.005156
0.160683 0.160683 0.005156
0.214041 0.160683 0.005156
0.276518 0.160683 0.005156
0.348510 0.160683 0.005156
0.430393 0.160683 0.005156
0.522522 0.160683 0.005156
0.625232 0.160683 0.005156
0.738845 0.160683 0.005156
0.863669 0.160683 0.005156
1.000000 0.160683 0.005156
0.000000 0.214041 0.005156
0.005156 0.214041 0.005156
0.014350 0.214041 0.005156
0.029343 0.214041 0.005156
0.050876 0.214041 0.005156
0.079581 0.214041 0.005156
0.116016 0.214041 0.005156
0.160683 0.214041 0.005156
0.214041 0.214041 0.005156
0.276518 0.214041 0.005156
0.348510 0.214041 0.005156
0.430393 0.214041 0.005156
0.522522 0.214041 0.005156
0.625232 0.214041 0.005156
0.738845 0.214041 0.005156
0.863669 0.214041 0.005156
1.000000 0.214041 0.005156
0.000000 0.276518 0.005156
0.005156 0.276518 0.005156
0.014350 0.276518 0.005156
0.029343 0.276518 0.005156
0.050876 0.276518 0.005156
0.079581 0.276518 0.005156
0.116016 0.276518 0.005156
0.160683 0.276518 0.005156
0.214041 0.276518 0.005156
0.276518 0.276518 0.005156
0.348510 0.276518 0.005156
0.430393 0.276518 0.005156
0.522522 0.276518 0.005156
0.625232 0.276518 0.005156
0.738845 0.276518 0.005156
0.863669 0.276518 0.005156
1.000000 0.276518 0.005156
0.000000 0.348510 0.005156
0.005156 0.348510 0.005156
0.014350 0.348510 0.005156
0.029343 0.348510 0.005156
0.050876 0.348510 0.005156
0.079581 0.348510 0.005156
0.116016 0.348510 0.005156
0.160683 0.348510 0.005156
0.214041 0.348510 0.005156
0.276518 0.348510 0.005156
0.348510 0.348510 0.005156
0.430393 0.348510 0.005156
0.522522 0.348510 0.005156
0.625232 0.348510 0.005156
0.738845 0.348510 0.005156
0.863669 0.348510 0.005156
1.000000 0.348510 0.005156
0.000000 0.430393 0.005156
0.005156 0.430393 0.005156
0.014350 0.430393 0.005156
0.029343 0.430393 0.005156
0.050876 0.430393 0.005156
0.079581 0.430393 0.005156
0.116016 0.430393 0.005156
0.160683 0.430393 0.005156
0.214041 0.430393 0.005156
0.276518 0.430393 0.005156
0.348510 0.430393 0.005156
0.430393 0.430393 0.005156
0.522522 0.430393 0.005156
0.625232 0.430393 0.005156
0.738845 0.430393 0.005156
0.863669 0.430393 0.005156
1.000000 0.430393 0.005156
0.000000 0.522522 0.005156
0.005156 0.522522 0.005156
0.014350 0.522522 0.005156
0.029343 0.522522 0.005156
0.050876 0.522522 0.005156
0.079581 0.522522 0.005156
0.116016 0.522522 0.005156
0.160683 0.522522 0.005156
0.214041 0.522522 0.005156
0.276518 0.522522 0.005156
0.348510 0.522522 0.005156
0.430393 0.522522 0.005156
0.522522 0.522522 0.005156
0.625232 0.522522 0.005156
0.738845 0.522522 0.005156
0.863669 0.522522 0.005156
1.000000 0.522522 0.005156
0.000000 0.625232 0.005156
0.005156 0.625232 0.005156
0.014350 0.625232 0.005156
0.029343 0.625232 0.005156
0.050876 0.625232 0.005156
0.079581 0.625232 0.005156
0.116016 0.625232 0.005156
0.160683 0.625232 0.005156
0.214041 0.625232 0.005156
0.276518 0.625232 0.005156
0.348510 0.625232 0.005156
0.430393 0.625232 0.005156
0.522522 0.625232 0.005156
0.625232 0.625232 0.005156
0.738845 0.625232 0.005156
0.863669 0.625232 0.005156
1.000000 0.625232 0.005156
0.000000 0.738845 0.005156
0.005156 0.738845 0.005156
0.014350 0.738845 0.005156
0.029343 0.738845 0.005156
0.050876 0.738845 0.005156
0.079581 0.738845 0.005156
0.116016 0.738845 0.005156
0.160683 0.738845 0.005156
0.214041 0.738845 0.005156
0.276518 0.738845 0.005156
0.348510 0.738845 0.005156
0.430393 0.738845 0.005156
0.522522 0.738845 0.005156
0.625232 0.738845 0.005156
0.738845 0.738845 0.005156
0.863669 0.738845 0.005156
1.000000 0.738845 0.005156
0.000000 0.863669 0.005156
0.005156 0.863669 0.005156
0.014350 0.863669 0.005156
0.029343 0.863669 0.005156
0.050876 0.863669 0.005156
0.079581 0.863669 0.005156
0.116016 0.863669 0.005156
0.160683 0.863669 0.005156
0.214041 0.863669 0.005156
0.276518 0.863669 0.005156
0.348510 0.863669 0.005156
0.430393 0.863669 0.005156
0.522522 0.863669 0.005156
0.625232 0.863669 0.005156
0.738845 0.863669 0.005156
0.863669 0.863669 0.005156
1.000000 0.863669 0.005156
0.000000 1.000000 0.005156
0.005156 1.000000 0.005156
0.014350 1.000000 0.005156
0.029343 1.000000 0.005156
0.050876 1.000000 0.005156
0.079581 1.000000 0.005156
0.116016 1.000000 0.005156
0.160683 1.000000 0.005156
0.214041 1.000000 0.005156
0.276518 1.000000 0.005156
0.348510 1.000000 0.005156
0.430393 1.000000 0.005156
0.522522 1.000000 0.005156
0.625232 1.000000 0.005156
0.738845 1.000000 0.005156
0.863669 1.000000 0.005156
1.000000 1.000000 0.005156
0.000000 0.000000 0.014350
0.005156 0.000000 0.014350
0.014350 0.000000 0.014350
0.029343 0.000000 0.014350
0.050876 0.000000 0.014350
0.079581 0.000000 0.014350
0.116016 0.000000 0.014350
0.160683 0.000000 0.014350
0.214041 0.000000 0.014350
0.276518 0.000000 0.014350
0.348510 0.000000 0.014350
0.430393 0.000000 0.014350
0.522522 0.000000 0.014350
0.625232 0.000000 0.014350
0.738845 0.000000 0.014350
0.863669 0.000000 0.014350
1.000000 0.000000 0.014350
0.000000 0.005156 0.014350
0.005156 0.005156 0.014350
0.014350 0.005156 0.014350
0.029343 0.005156 0.014350
0.050876 0.005156 0.014350
0.079581 0.005156 0.014350
0.116016 0.005156 0.014350
0.160683 0.005156 0.014350
0.214041 0.005156 0.014350
0.276518 0.005156 0.014350
0.348510 0.005156 0.014350
0.430393 0.005156 0.014350
0.522522 0.005156 0.014350
0.625232 0.005156 0.014350
0.738845 0.005156 0.014350
0.863669 0.005156 0.014350
1.000000 0.005156 0.014350
0.000000 0.014350 0.014350
0.005156 0.014350 0.014350
0.014350 0.014350 0.014350
0.029343 0.014350 0.014350
0.050876 0.014350 0.014350
0.079581 0.014350 0.014350
0.116016 0.014350 0.014350
0.160683 0.014350 0.014350
0.214041 0.014350 0.014350
0.276518 0.014350 0.014350
0.348510 0.014350 0.014350
0.430393 0.014350 0.014350
0.522522 0.014350 0.014350
0.625232 0.014350 0.014350
0.738845 0.014350 0.014350
0.863669 0.014350 0.014350
1.000000 0.014350 0.014350
0.000000 0.029343 0.014350
0.005156 0.029343 0.014350
0.014350 0.029343 0.014350
0.029343 0.029343 0.014350
0.050876 0.029343 0.014350
0.079581 0.029343 0.014350
0.116016 0.029343 0.014350
0.160683 0.029343 0.014350
0.214041 0.029343 0.014350
0.276518 0.029343 0.014350
0.348510 0.029343 0.014350
0.430393 0.029343 0.014350
0.522522 0.029343 0.014350
0.625232 0.029343 0.014350
0.738845 0.029343 0.014350
0.863669 0.029343 0.014350
1.000000 0.029343 0.014350
0.000000 0.050876 0.014350
0.005156 0.050876 0.014350
0.014350 0.050876 0.014350
0.029343 0.050876 0.014350
0.050876 0.050876 0.014350
0.079581 0.050876 0.014350
0.116016 0.050876 0.014350
0.160683 0.050876 0.014350
0.214041 0.050876 0.014350
0.276518 0.050876 0.014350
0.348510 0.050876 0.014350
0.430393 0.050876 0.014350
0.522522 0.050876 0.014350
0.625232 0.050876 0.014350
0.738845 0.050876 0.014350
0.863669 0.050876 0.014350
1.000000 0.050876 0.014350
0.000000 0.079581 0.014350
0.005156 0.079581 0.014350
0.014350 0.079581 0.014350
0.029343 0.079581 0.014350
0.050876 0.079581 0.014350
0.079581 0.079581 0.014350
0.116016 0.079581 0.014350
0.160683 0.079581 0.014350
0.214041 0.079581 0.014350
0.276518 0.079581 0.014350
0.348510 0.079581 0.014350
0.430393 0.079581 0.014350
0.522522 0.079581 0.014350
0.625232 0.079581 0.014350
0.738845 0.079581 0.014350
0.863669 0.079581 0.014350
1.000000 0.079581 0.014350
0.000000 0.116016 0.014350
0.005156 0.116016 0.014350
0.014350 0.116016 0.014350
0.029343 0.116016 0.014350
0.050876 0.116016 0.014350
0.079581 0.116016 0.014350
0.116016 0.116016 0.014350
0.160683 0.116016 0.014350
0.214041 0.116016 0.014350
0.276518 0.116016 0.014350
0.348510 0.116016 0.014350
0.430393 0.116016 0.014350
0.522522 0.116016 0.014350
0.625232 0.116016 0.014350
0.738845 0.116016 0.014350
0.863669 0.116016 0.014350
1.000000 0.116016 0.014350
0.000000 0.160683 0.014350
0.005156 0.160683 0.014350
0.014350 0.160683 0.014350
0.029343 0.160683 0.014350
0.050876 0.160683 0.014350
0.079581 0.160683 0.014350
0.116016 0.160683 0.014350
0.160683 0.160683 0.014350
0.214041 0.160683 0.014350
0.276518 0.160683 0.014350
0.348510 0.160683 0.014350
0.430393 0.160683 0.014350
0.522522 0.160683 0.014350
0.625232 0.160683 0.014350
0.738845 0.160683 0.014350
0.863669 0.160683 0.014350
1.000000 0.160683 0.014350
0.000000 0.214041 0.014350
0.005156 0.214041 0.014350
0.014350 0.214041 0.014350
0.029343 0.214041 0.014350
0.050876 0.214041 0.014350
0.079581 0.214041 0.014350
0.116016 0.214041 0.014350
0.160683 0.214041 0.014350
0.214041 0.214041 0.014350
0.276518 0.214041 0.014350
0.348510 0.214041 0.014350
0.430393 0.214041 0.014350
0.522522 0.214041 0.014350
0.625232 0.214041 0.014350
0.738845 0.214041 0.014350
0.863669 0.214041 0.014350
1.000000 0.214041 0.014350
0.000000 0.276518 0.014350
0.005156 0.276518 0.014350
0.014350 0.276518 0.014350
0.029343 0.276518 0.014350
0.050876 0.276518 0.014350
0.079581 0.276518 0.014350
0.116016 0.276518 0.014350
0.160683 0.276518 0.014350
0.214041 0.276518 0.014350
0.276518 0.276518 0.014350
0.348510 0.276518 0.014350
0.430393 0.276518 0.014350
0.522522 0.276518 0.014350
0.625232 0.276518 0.014350
0.738845 0.276518 0.014350
0.863669 0.276518 0.014350
1.000000 0.276518 0.014350
0.000000 0.348510 0.014350
0.005156 0.348510 0.014350
0.014350 0.348510 0.014350
0.029343 0.348510 0.014350
0.050876 0.348510 0.014350
0.079581 0.348510 0.014350
0.116016 0.348510 0.014350
0.160683 0.348510 0.014350
0.214041 0.348510 0.014350
0.276518 0.348510 0.014350
0.348510 0.348510 0.014350
0.430393 0.348510 0.014350
0.522522 0.348510 0.014350
0.625232 0.348510 0.014350
0.738845 0.348510 0.014350
0.863669 0.348510 0.014350
1.000000 0.348510 0.014350
0.000000 0.430393 0.014350
0.005156 0.430393 0.014350
0.014350 0.430393 0.014350
0.029343 0.430393 0.014350
0.050876 0.430393 0.014350
0.079581 0.430393 0.014350
0.116016 0.430393 0.014350
0.160683 0.430393 0.014350
0.214041 0.430393 0.014350
0.276518 0.430393 0.014350
0.348510 0.430393 0.014350
0.430393 0.430393 0.014350
0.522522 0.430393 0.014350
0.625232 0.430393 0.014350
0.738845 0.430393 0.014350
0.863669 0.430393 0.014350
1.000000 0.430393 0.014350
0.000000 0.522522 0.014350
0.005156 0.522522 0.014350
0.014350 0.522522 0.014350
0.029343 0.522522 0.014350
0.050876 0.522522 0.014350
0.079581 0.522522 0.014350
0.116016 0.522522 0.014350
0.160683 0.522522 0.014350
0.214041 0.522522 0.014350
0.276518 0.522522 0.014350
0.348510 0.522522 0.014350
0.430393 0.522522 0.014350
0.522522 0.522522 0.014350
0.625232 0.522522 0.014350
0.738845 0.522522 0.014350
0.863669 0.522522 0.014350
1.000000 0.522522 0.014350
0.000000 0.625232 0.014350
0.005156 0.625232 0.014350
0.014350 0.625232 0.014350
0.029343 0.625232 0.014350
0.050876 0.625232 0.014350
0.079581 0.625232 0.014350
0.116016 0.625232 0.014350
0.160683 0.625232 0.014350
0.214041 0.625232 0.014350
0.276518 0.625232 0.014350
0.348510 0.625232 0.014350
0.430393 0.625232 0.014350
0.522522 0.625232 0.014350
0.625232 0.625232 0.014350
0.738845 0.625232 0.014350
0.863669 0.625232 0.014350
1.000000 0.625232 0.014350
0.000000 0.738845 0.014350
0.005156 0.738845 0.014350
0.014350 0.738845 0.014350
0.029343 0.738845 0.014350
0.050876 0.738845 0.014350
0.079581 0.738845 0.014350
0.116016 0.738845 0.014350
0.160683 0.738845 0.014350
0.214041 0.738845 0.014350
0.276518 0.738845 0.014350
0.348510 0.738845 0.014350
0.430393 0.738845 0.014350
0.522522 0.738845 0.014350
0.625232 0.738845 0.014350
0.738845 0.738845 0.014350
0.863669 0.738845 0.014350
1.000000 0.738845 0.014350
0.000000 0.863669 0.014350
0.005156 0.863669 0.014350
0.014350 0.863669 0.014350
0.029343 0.863669 0.014350
0.050876 0.863669 0.014350
0.079581 0.863669 0.014350
0.116016 0.863669 0.014350
0.160683 0.863669 0.014350
0.214041 0.863669 0.014350
0.276518 0.863669 0.014350
0.348510 0.863669 0.014350
0.430393 0.863669 0.014350
0.522522 0.863669 0.014350
0.625232 0.863669 0.014350
0.738845 0.863669 0.014350
0.863669 0.863669 0.014350
1.000000 0.863669 0.014350
0.000000 1.000000 0.014350
0.005156 1.000000 0.014350
0.014350 1.000000 0.014350
0.029343 1.000000 0.014350
0.050876 1.000000 0.014350
0.079581 1.000000 0.014350
0.116016 1.000000 0.014350
0.160683 1.000000 0.014350
0.214041 1.000000 0.014350
0.276518 1.000000 0.014350
0.348510 1.000000 0.014350
0.430393 1.000000 0.014350
0.522522 1.000000 0.014350
0.625232 1.000000 0.014350
0.738845 1.000000 0.014350
0.863669 1.000000 0.014350
1.000000 1.000000 0.014350
0.000000 0.000000 0.029343
0.005156 0.000000 0.029343
0.014350 0.000000 0.029343
0.029343 0.000000 0.029343
0.050876 0.000000 0.029343
0.079581 0.000000 0.029343
0.116016 0.000000 0.029343
0.160683 0.000000 0.029343
0.214041 0.000000 0.029343
0.276518 0.000000 0.029343
0.348510 0.000000 0.029343
0.430393 0.000000 0.029343
